logo/rings.svg

<svg fill="none" height="290" viewBox="0 0 290 290" width="290" xmlns="http://www.w3.org/2000/svg" xmlns:xlink="http://www.w3.org/1999/xlink"><linearGradient id="a"><stop offset="0" stop-color="#7a8fd9"/><stop offset="1" stop-color="#ac62e4"/></linearGradient><linearGradient id="b" gradientUnits="userSpaceOnUse" x1="4.93568" x2="300.703" xlink:href="#a" y1="594.757" y2="591.474"/><linearGradient id="c" gradientUnits="userSpaceOnUse" x1="8.45681" x2="258.762" xlink:href="#a" y1="510.811" y2="508.033"/><linearGradient id="d" gradientUnits="userSpaceOnUse" x1="10.8232" x2="215.619" xlink:href="#a" y1="430.332" y2="428.059"/><linearGradient id="e" gradientUnits="userSpaceOnUse" x1="12.9216" x2="172.218" xlink:href="#a" y1="349.784" y2="348.016"/><g clip-rule="evenodd" fill-rule="evenodd"><path d="m243.703 251.039c58.502-54.554 61.702-146.203 7.148-204.7055-54.554-58.5017-146.203-61.7024-204.7054-7.1483-.3101.2892-.619.5798-.9265.8712 54.0304-49.68125 138.1179-46.52024 188.2579 7.2481 50.357 54.0015 47.403 138.6015-6.599 188.9595-54.001 50.357-138.6013 47.403-188.9587-6.599-37.75159-40.484-45.54159-98.164-24.3237-145.7216-24.1571 51.9116-16.04832 115.4976 25.4018 159.9476 54.5536 58.502 146.2036 61.702 204.7056 7.148z" fill="url(#b)"/><path d="m233.063 191.557c33.843-58.616 13.76-133.5697-44.858-167.4121-58.616-33.84242-133.5697-13.7586-167.4121 44.858-33.8424 58.6171-13.75863 133.5701 44.858 167.4121 58.6171 33.843 133.5701 13.76 167.4121-44.858zm-19.297-11.141c30.766-53.288 12.508-121.4273-40.78-152.1929-53.288-30.76612-121.427-12.5082-152.1931 40.7798-30.76584 53.2881-12.50812 121.4271 40.7799 152.1931 53.2882 30.766 121.4272 12.508 152.1932-40.78z" fill="url(#c)"/><path d="m194.592 169.125c27.69-47.959 11.258-109.2843-36.702-136.9735-47.959-27.68924-109.2839-11.2572-136.9737 36.7021-27.68922 47.9584-11.25713 109.2844 36.7022 136.9734 47.9595 27.689 109.2845 11.257 136.9735-36.702zm-19.297-11.141c24.613-42.631 10.006-97.1419-32.624-121.7543-42.63-24.6129-97.1417-10.0067-121.7547 32.6239-24.61244 42.6304-10.0062 97.1414 32.6245 121.7544 42.6302 24.612 97.1412 10.006 121.7542-32.624z" fill="url(#d)"/><path d="m143.293 133.246c16.181-34.6998 1.168-75.9458-33.532-92.1266-34.5353-16.1045-75.5571-1.3088-91.8956 33.0425 18.3613-38.6884 64.5389-55.3607 103.4126-37.2338 39.036 18.2031 55.925 64.6049 37.722 103.6419s-64.6046 55.926-103.6415 37.723c-38.8733-18.127-55.784019-64.218-37.9499-103.1516-15.81175 34.5966-.7777 75.5306 33.7581 91.6356 34.6994 16.18 75.9453 1.168 92.1263-33.531z" fill="url(#e)"/></g></svg>

<svg width="290" height="290" viewBox="0 0 290 290" fill="none" xmlns="http://www.w3.org/2000/svg">
<path fill-rule="evenodd" clip-rule="evenodd" d="M243.703 251.039C302.205 196.485 305.405 104.836 250.851 46.3335C196.297 -12.1682 104.648 -15.3689 46.1456 39.1852C45.8355 39.4744 45.5266 39.765 45.2191 40.0564C99.2495 -9.62485 183.337 -6.46384 233.477 47.3045C283.834 101.306 280.88 185.906 226.878 236.264C172.877 286.621 88.2767 283.667 37.9193 229.665C0.16771 189.181 -7.62229 131.501 13.5956 83.9434C-10.5615 135.855 -2.45272 199.441 38.9974 243.891C93.551 302.393 185.201 305.593 243.703 251.039Z" fill="url(#paint0_linear_33_19)"/>
<path fill-rule="evenodd" clip-rule="evenodd" d="M233.063 191.557C266.906 132.941 246.823 57.9873 188.205 24.1449C129.589 -9.69752 54.6353 10.3863 20.7929 69.0029C-13.0495 127.62 7.03427 202.573 65.6509 236.415C124.268 270.258 199.221 250.175 233.063 191.557ZM213.766 180.416C244.532 127.128 226.274 58.9887 172.986 28.2231C119.698 -2.54302 51.559 15.7149 20.7929 69.0029C-9.97294 122.291 8.28478 190.43 61.5728 221.196C114.861 251.962 183 233.704 213.766 180.416Z" fill="url(#paint1_linear_33_19)"/>
<path fill-rule="evenodd" clip-rule="evenodd" d="M194.592 169.125C222.282 121.166 205.85 59.8407 157.89 32.1515C109.931 4.46226 48.6061 20.8943 20.9163 68.8536C-6.77292 116.812 9.65917 178.138 57.6185 205.827C105.578 233.516 166.903 217.084 194.592 169.125ZM175.295 157.984C199.908 115.353 185.301 60.8421 142.671 36.2297C100.041 11.6168 45.5293 26.223 20.9163 68.8536C-3.69614 111.484 10.9101 165.995 53.5408 190.608C96.171 215.22 150.682 200.614 175.295 157.984Z" fill="url(#paint2_linear_33_19)"/>
<path fill-rule="evenodd" clip-rule="evenodd" d="M143.293 133.246C159.474 98.5462 144.461 57.3002 109.761 41.1194C75.2257 25.0149 34.2039 39.8106 17.8654 74.1619C36.2267 35.4735 82.4043 18.8012 121.278 36.9281C160.314 55.1312 177.203 101.533 159 140.57C140.797 179.607 94.3954 196.496 55.3585 178.293C16.4852 160.166 -0.425519 114.075 17.4086 75.1414C1.59685 109.738 16.6309 150.672 51.1667 166.777C85.8661 182.957 127.112 167.945 143.293 133.246Z" fill="url(#paint3_linear_33_19)"/>
<defs>
<linearGradient id="paint0_linear_33_19" x1="4.93568" y1="594.757" x2="300.703" y2="591.474" gradientUnits="userSpaceOnUse">
<stop stop-color="#7A8FD9"/>
<stop offset="1" stop-color="#AC62E4"/>
</linearGradient>
<linearGradient id="paint1_linear_33_19" x1="8.45681" y1="510.811" x2="258.762" y2="508.033" gradientUnits="userSpaceOnUse">
<stop stop-color="#7A8FD9"/>
<stop offset="1" stop-color="#AC62E4"/>
</linearGradient>
<linearGradient id="paint2_linear_33_19" x1="10.8232" y1="430.332" x2="215.619" y2="428.059" gradientUnits="userSpaceOnUse">
<stop stop-color="#7A8FD9"/>
<stop offset="1" stop-color="#AC62E4"/>
</linearGradient>
<linearGradient id="paint3_linear_33_19" x1="12.9216" y1="349.784" x2="172.218" y2="348.016" gradientUnits="userSpaceOnUse">
<stop stop-color="#7A8FD9"/>
<stop offset="1" stop-color="#AC62E4"/>
</linearGradient>
</defs>
</svg>
